X: 20522
T: John MacKenzie's Fancy
R: hornpipe
M: 4/4
K: Amixolydian
|:e2|A>ee>A ~e2A>e|e>Ae>f g>fe>g|G>dd>G ~B2G>d|d>GB<d e2d>e|
A>ee>A ~e2A>e|e>Ae>f g>fe>g|G>gg>e a>ge>d|~e2A2 ~A2:|
|:e2|A>ee>g a>ge>d|e>fg>e a2e<g|G>dd>G (3(ddd)G>d|d>GB<d e2d>e|
A>ee>g a>ge>d|e>fg>e a2e<g|G>gg>e a>ge>d|~e2A2 ~A2:|
|:e>f|g>eB>g f>de>d|g>eB>g f2d<e|d>BG>B B<GB2|G>dB<G d>BA>B|
g>eB>g f>de>d|g>eB>g f2d<e|G>gg>e a>ge>d|~e2A2 ~A2:|
|:e2|A>B~e2 d>BG>B|A>B~e2 d2B<d|g>fe>d B>AG>d|d>GB<d e2d>e|
A>B~e2 d>BG>B|A>B~e2 d2B<d|G>gg>e a>ge>d|~e2A2 ~A2:|

